!!!OTL: 192. Sher
!!!Genre:	Sher
!!!Mode:	Minor
!!!Listening/dance:	dance
!!!One_Mode:	no
**kern
*thru
*I"P1
*clefG2
*k[b-e-]
*g:
*M2/4
!!!Begin-Modulation
*g:
!LO:TX:a:i:t=G-minor
=9
8ffL
8ggJ
4ff
=10
4dd
4b-
=11
4cc
8ddL
8ccJ
=12
8b-L
8aJ
4g
=13
4cc
16ddLL
16ccJ
8b-J
=14
8b-L
8aJ
16b-LL
16aJ
8gJ
=15
2g
=
4g
8r
=16||
*>B
!!!Begin-Modulation
*g:
!LO:TX:a:i:t=G-minor
=29
8ddL
8ccJ
16ddLL
16ccJ
8b-J
=30
8b-L
8aJ
16b-LL
16aJ
8gJ
=31
2g
=32
4g
8r
==
*-
